X: 34
T: The Lucky Lover
M: C
L: 1/8
B: "O'Neill's 34"
N: "Cheerfully" "collected by F. O'Neill"
Z: "Transcribed by Norbert Paap, norbertp@bdu.uva.nl"
K:Em
B|GEEF GABc|dedA F2 DF|GEEF GABe|GEFD E2 E :|
B|efeB efeB|dedA F2 Dd|efeB efeB|efgf fe2 dc|
defd ecdc|AFdA F2 DF|GEBE GABe|GEFD E2 E|
